X:1
T:Olà, chi mi sa dar
T:Gasparo Fiorino c. 1530 - c. 1675
T:Olà, chi mi sa dar
T:Villanello a 3 voci
T:(C) Wim Looyestijn - 2018. May be freely copied for non-commercial use.
C:Gasparo Fiorino
C:c. 1530 - c. 1675
Z:(C) Wim Looyestijn - 2018. May be freely copied for non-commercial use.
%%score [ 1 2 3 ]
L:1/8
Q:1/4=160
M:4/4
K:Bb
V:1 treble nm="Soprano" snm="S"
V:2 treble nm="Alto" snm="A"
V:3 treble-8 nm="Tenore" snm="T"
V:1
 z2 B2 A4 | z2 d2 c4 | z2 f2 e2 d2 | c2 B2 c4 | B2 d2 c3 B | A2 G2 A4 | G4 z2 c2 | c6 c2 | %8
w: 1. O- là,|o- là,|chi mi sa|dar no- vel-|la d'u- na cru-|de- le bel-|la, che|me- na|
w: 2. Et io,|et io|che vol- si|fa- re a lei,|fa- re a lei con-|tras- * *|to, son|qui pre-|
 d2 d2 =e4 | c8 | z2 f2 f2 =e2 | f2 d4 c2 | z2 G2 G2 F2 | G2 A2 B4- | B2 B2 A2 A2 | G4 F4 | F8 |] %17
w: se- co al- tie|ra|di mor- ta-|li pri- gion,|di mor- ta-|li pri- gion|* u- na gran|schie- *|ra.|
w: so ri- mas-|to,|e mi me-|nò pri- gion',|vin- to da|sua bel- ta-|* de e mia ra-|gio- *|ne.|
V:2
 z2 G2 F2 F2 | B4 z2 A2 | B2 B2 G2 B2 | A2 B4 A2 | B2 B2 A2 G2 | ^F2 G4 F2 | G4 z2 A2 | A6 c2 | %8
w: 1. O- là, o-|là, o-|là, chi mi sa|dar no- vel-|la d'u- na cru-|de- le bel-|la, che|me- na|
w: 2. Et io, et|io, et|io che vol- si|fa- re a lei,|fa- re a lei con-|tras- * *|to, son|qui pre-|
 c2 =B2 c4 | A z A2 A2 G2 | A2 B2 c4 | F4 G2 A2 | D2 =E2 E2 F2 | =E2 F2 G4- | G2 G2 F2 F2- | %15
w: se- co al- tie|ra di mor- ta-|li pri- gion,|di mor- ta-|li di mor- ta-|li pri- gion|* u- na gran|
w: so ri- mas-|to, e mi me-|nò pri- gion',|e mi me-|nò vin- to da|sua bel- ta-|* de e mia ra-|
 F2 =E2 F4- | F8 |] %17
w: * schie- ra.||
w: * gio- ne.||
V:3
 z2 G2 d4 | z2 B2 f4 | z2 B2 c2 B2 | f2 g2 f4 | B2 B2 c2 c2 | d2 e2 d4 | G4 z2 f2 | f6 a2 | %8
w: 1. O- là,|o- là,|chi mi sa|dar no- vel-|la d'u- na cru-|de- le bel-|la, che|me- na|
w: 2. Et io,|et io|che vol- si|fa- re a lei,|fa- re a lei con-|tras- * *|to, son|qui pre-|
 g2 g2 c4 | f z f2 f2 =e2 | f2 d2 c4 | z2 B2 B2 A2 | B2 c2 c2 d2 | c4 B2 G2- | GABc d2 B2 | c4 F4 | %16
w: se- co al- tie|ra di mor- ta-|li pri- gion,|di mor- ta-|li di mor- ta-|li pri- gion|* * * * u- na|gran schie-|
w: so ri- mas-|to, e mi me-|nò pri- gion',|e mi me-|nò vin- to da|sua bel- ta-|* * * * de e mia|ra- gio-|
 F8 |] %17
w: ra.|
w: ne.|

